src/assets/code-block.svg

<svg width="28" height="28" viewBox="0 0 28 28" fill="none" xmlns="http://www.w3.org/2000/svg">
<path d="M14 0.362305C16.9576 0.362305 19.2738 0.361001 21.0781 0.603516C22.9104 0.849859 24.36 1.36402 25.498 2.50195C26.636 3.64002 27.1511 5.08955 27.3975 6.92188C27.64 8.72623 27.6377 11.0432 27.6377 14.001C27.6377 16.9585 27.64 19.2749 27.3975 21.0791C27.1511 22.9112 26.636 24.361 25.498 25.499C24.36 26.6368 22.9103 27.1521 21.0781 27.3984C19.2739 27.6409 16.9575 27.6387 14 27.6387C11.0421 27.6387 8.72525 27.641 6.9209 27.3984C5.08869 27.1521 3.63899 26.6369 2.50098 25.499C1.36313 24.361 0.848905 22.9112 0.602539 21.0791C0.360003 19.2749 0.361328 16.9585 0.361328 14.001C0.361328 11.0432 0.360011 8.72623 0.602539 6.92188C0.848866 5.08972 1.3632 3.63997 2.50098 2.50195C3.63897 1.36397 5.08871 0.849892 6.9209 0.603516C8.72526 0.360926 11.0421 0.362305 14 0.362305ZM14 2.30566C10.9871 2.30566 8.82451 2.30718 7.17969 2.52832C5.56299 2.74572 4.59187 3.15912 3.875 3.87598C3.15833 4.59286 2.74469 5.56404 2.52734 7.18066C2.30627 8.82548 2.30469 10.9883 2.30469 14.001C2.30469 17.0134 2.30626 19.1756 2.52734 20.8203C2.74468 22.4365 3.15759 23.4082 3.87402 24.125C4.5909 24.8418 5.56299 25.2553 7.17969 25.4727C8.82451 25.6938 10.9872 25.6963 14 25.6963C17.0124 25.6963 19.1746 25.6937 20.8193 25.4727C22.436 25.2553 23.4081 24.8417 24.125 24.125C24.8415 23.4082 25.2543 22.4366 25.4717 20.8203C25.6928 19.1756 25.6953 17.0134 25.6953 14.001C25.6953 10.9882 25.6928 8.82549 25.4717 7.18066C25.2543 5.56381 24.8409 4.59289 24.124 3.87598C23.4071 3.15917 22.4361 2.74569 20.8193 2.52832C19.1746 2.30726 17.0125 2.30566 14 2.30566ZM14.4482 9.60059C14.6502 9.15155 15.1635 8.91924 15.6406 9.07812C16.1494 9.24789 16.4244 9.79877 16.2549 10.3076L13.5889 18.3076C13.4191 18.8163 12.8682 19.0913 12.3594 18.9219C11.8506 18.7521 11.5755 18.2013 11.7451 17.6924L14.4121 9.69238L14.4482 9.60059ZM8.03223 10.5986C8.43861 10.2484 9.05207 10.2938 9.40234 10.7002C9.75214 11.1065 9.70685 11.7192 9.30078 12.0693L7.66504 13.4795C7.38423 13.7215 7.20243 13.8794 7.08008 14C7.20245 14.1207 7.38387 14.2792 7.66504 14.5215L9.30078 15.9316L9.37305 16C9.71136 16.3575 9.73064 16.9209 9.40234 17.3018C9.074 17.6822 8.51466 17.7456 8.11133 17.4639L8.03223 17.4033L6.39746 15.9932C6.07541 15.7156 5.75612 15.4436 5.53027 15.1885C5.32156 14.9526 5.09371 14.6248 5.04004 14.1924L5.02832 14.001L5.04004 13.8086C5.09366 13.3761 5.32155 13.0484 5.53027 12.8125C5.75608 12.5574 6.07538 12.2854 6.39746 12.0078L8.03223 10.5986ZM18.5977 10.7002C18.9479 10.2938 19.5604 10.2484 19.9668 10.5986L21.6025 12.0078L22.0723 12.4189C22.2203 12.5534 22.3569 12.685 22.4697 12.8125C22.7083 13.0821 22.9707 13.472 22.9707 14.001C22.9704 14.5295 22.7082 14.919 22.4697 15.1885C22.3569 15.3159 22.2203 15.4486 22.0723 15.583L21.6025 15.9932L19.9668 17.4033C19.5606 17.7527 18.9478 17.7074 18.5977 17.3018C18.2475 16.8955 18.2932 16.282 18.6992 15.9316L20.334 14.5215C20.615 14.2793 20.7965 14.1206 20.9189 14C20.7965 13.8794 20.6148 13.7215 20.334 13.4795L18.6992 12.0693C18.293 11.7192 18.2478 11.1066 18.5977 10.7002Z" fill="url(#paint0_linear_16_1262)"/>
<defs>
<linearGradient id="paint0_linear_16_1262" x1="0.361328" y1="0.362305" x2="27.6377" y2="27.6387" gradientUnits="userSpaceOnUse">
<stop stop-color="#5EFCE8"/>
<stop offset="1" stop-color="#736EFE"/>
</linearGradient>
</defs>
</svg>

<svg xmlns="http://www.w3.org/2000/svg" width="28" height="28" fill="none" viewBox="0 0 28 28"><path fill="url(#a)" d="M14 .362c2.958 0 5.274-.001 7.078.242 1.832.246 3.282.76 4.42 1.898s1.653 2.588 1.9 4.42c.242 1.804.24 4.121.24 7.079s.002 5.274-.24 7.078c-.247 1.832-.762 3.282-1.9 4.42s-2.588 1.653-4.42 1.9c-1.804.242-4.12.24-7.078.24s-5.275.002-7.08-.24c-1.831-.247-3.281-.762-4.419-1.9S.849 22.911.603 21.079C.36 19.275.36 16.96.36 14.001s0-5.275.243-7.08c.246-1.831.76-3.281 1.898-4.42C3.639 1.365 5.089.85 6.921.605 8.725.36 11.042.362 14 .362m0 1.944c-3.013 0-5.175.001-6.82.222-1.617.218-2.588.631-3.305 1.348s-1.13 1.688-1.348 3.305c-.22 1.644-.222 3.807-.222 6.82 0 3.012.001 5.175.222 6.82.218 1.615.63 2.587 1.347 3.304s1.689 1.13 3.306 1.348c1.645.22 3.807.223 6.82.223 3.012 0 5.175-.002 6.82-.223 1.616-.218 2.588-.631 3.305-1.348.716-.717 1.13-1.688 1.347-3.305.22-1.644.223-3.807.223-6.819s-.002-5.176-.223-6.82c-.218-1.617-.631-2.588-1.348-3.305s-1.688-1.13-3.305-1.348c-1.644-.22-3.806-.222-6.819-.222m.448 7.295a.972.972 0 0 1 1.807.707l-2.666 8a.973.973 0 0 1-1.844-.616l2.667-8zm-6.416.998a.972.972 0 0 1 1.269 1.47l-1.636 1.41c-.28.243-.463.4-.585.521.122.12.304.28.585.521l1.636 1.41.072.069a.972.972 0 0 1-1.262 1.464l-.079-.06-1.635-1.41c-.322-.278-.64-.55-.867-.806-.208-.235-.436-.563-.49-.996l-.012-.191.012-.192c.054-.433.282-.76.49-.996.226-.256.545-.528.867-.805zm10.566.101a.97.97 0 0 1 1.369-.101l1.636 1.409.47.41c.147.135.284.267.397.395.238.27.5.659.5 1.188s-.262.918-.5 1.188c-.113.127-.25.26-.398.394l-.47.41-1.635 1.41a.972.972 0 0 1-1.268-1.471l1.635-1.41c.281-.243.463-.401.585-.522a14 14 0 0 0-.585-.52l-1.635-1.41a.97.97 0 0 1-.101-1.37"/><defs><linearGradient id="a" x1=".361" x2="27.638" y1=".362" y2="27.639" gradientUnits="userSpaceOnUse"><stop stop-color="#5efce8"/><stop offset="1" stop-color="#736efe"/></linearGradient></defs></svg>
